X: 36257
T: Seal Island Fiddle
R: reel
M: 4/4
K: Eminor
EGGD EDGD|G3A BGAB|GEED EDGD|GABG A2BA|
GE E2 EDGD|G3A BGAB|GEED EDGD|GABG A2Bc||
d2gd e2gd|e2gd edBc|d2gd e2ga|bagd e2ga|
bagd e2gd|e2gd edBd|Adef g2ed|BAGB AGED||

